!!!!SEGMENT: pl-sa--530-a-ix-10--002_anonim--instrumental-piece.krn
!!!cenid: 17xx:2016
!!!COM: Anonim
!!!COM-rismID: pe30004985
!!!CDT:
!!!CNT:
!!!OTL: [Instrumental piece]
!!!PDT:
!!!AGN: Secular
!!!YEC: Copyright 2022 Narodowy Instytut Fryderyka Chopina (https://polishscores.org)
!!!YEM: License CC-BY-4.0 (https://creativecommons.org/licenses/by/4.0)
!!!SMS-siglum: PL-SA
!!!SMS-shelfmark: 530/A IX 10
!!!SMS-shelfwork: 002 W
!!!SMS-variant:
!!!SMS-altvar:
!!!NIFC-rismSourceID: 1001092504
!!!NIFC-rismChildID: 1001092504
!!!NIFC-islandoraID: none
!!!URL-pdf-islandora:
!!!URL-scan: https://bc.bdsandomierz.pl/dlibra/publication/1422/edition/1390/content @EN{Scan in the Sandomierz Diocese Digital Library} @PL{Skany w portalu Cyfrowa Biblioteka Diecezjalna w Sandomierzu}
!!!IIIF:
!!!ONB-nifc: UWAGA: 2dum
!!!AIN: 2 violn
!!!key: D
**kern	**kern	**kern
*part3	*part2	*part1
*staff3	*staff2	*staff1
*I"Baſso	*I"Violino 2do	*I"Violino Primo
*I'bc	*I'vl 2	*I'vl 1
*	*Ivioln	*Ivioln
*	*ICstr	*ICstr
*IGcont	*	*
*clefF4	*clefG2	*clefG2
*k[f#c#]	*k[f#c#]	*k[f#c#]
*D:	*D:	*D:
*M2/4	*M2/4	*M2/4
=1	=1	=1
*all\right	*all\right	*all\right
!LO:TX:a:i:B:t=2dum	!LO:TX:a:i:B:t=2dum	!LO:TX:a:i:B:t=2dum
!LO:TX:a:i:B:t=Presto	!LO:TX:a:i:B:t=Presto	!LO:TX:a:i:B:t=Presto
8D\L	1r	4d/
8D\	.	.
8D\	.	8e/L
8D\J	.	8d/J
=2	=2	=2
8D\L	.	8c#/L
8D\	.	8d/
8D\	.	8e/
8D\J	.	8d/J
=3	=3	=3
*tremolo	*	*
8D/L	4d/	4f#/
8D/	.	.
8D/	8e/L	8g/L
8D/J	8d/J	8f#/J
=4	=4	=4
8D/L	8c#/L	8e/L
8D/	8d/	8f#/
8D/	8e/	8g/
8D/J	8d/J	8f#/J
*Xtremolo	*	*
=5	=5	=5
4D\	4f#/	4a\
4r	8g/L	8b\L
.	8e/J	8cc#\J
=6	=6	=6
*2\right	*	*
2D\	16f#/LL	16dd\LL
.	16e/	16cc#\
.	16f#/	16dd\
.	16g/JJ	16ee\JJ
.	4f#/	4dd\
=7	=7	=7
4D\	8a/L	8ff#\L
.	8f#/	8dd\J
4A\	8e/	8cc#\L
.	8g/J	16b\L
.	.	16a\JJ
=8	=8	=8
4D\	8f#/L	8dd\L
.	8a/J	8ff#\J
4d\	4f#/	4dd\
=9	=9	=9
8A\L	16cc#\LL	16ee\LL
.	16b\	16dd\
8A\	16cc#\	16ee\
.	16dd\JJ	16ff#\JJ
8A\	4cc#\	4ee\
8A\J	.	.
=10	=10	=10
8D\L	16dd\LL	16ff#\LL
.	16cc#\	16ee\
8d\	16dd\	16ff#\
.	16ee\JJ	16gg\JJ
8D\	4dd\	4ff#\
8d\J	.	.
=11	=11	=11
2AA/	8ee\L	8gg\L
.	8cc#\	8ee\J
.	.	8qdd/
.	8a\	8cc#\L
.	8cc#\J	16b\L
.	.	16a\JJ
=12	=12	=12
2D\	8dd\L	8ff#\L
.	8ff#\J	8aa\J
.	4dd\	4ff#\
=13	=13	=13
2AA/	8e/L	8gg\L
.	8a/	8ee\J
.	.	8qdd/
.	8e/	8cc#\L
.	8a/J	16b\L
.	.	16a\JJ
=14	=14	=14
2D\	8f#/L	8aa\L
.	8a/	8ff#\
.	8f#/	8dd\
.	8a/J	8a\J
!	!LO:LB:g=original	!LO:LB:g=original
=15	=15	=15
2AA/	8e/L	8gg\L
.	8a/	8ee\J
.	.	8qdd/
.	8e/	8cc#\L
.	8a/J	16b\L
.	.	16a\JJ
=16	=16	=16
4D\	8f#/L	8dd\L
.	8a/J	8ff#\J
4d\	4dd\	4dd\
!LO:LB:g=original	!	!
=17	=17	=17
4D\	16dd\LL	16ff#\LL
.	16ff#\	16aa\
.	16ff#\	16aa\
.	16ff#\JJ	16aa\JJ
4r	16dd\LL	16ff#\LL
.	16ff#\	16aa\
.	16ff#\	16aa\
.	16ff#\JJ	16aa\JJ
=18	=18	=18
4G\	16gg\LL	16bb\LL
.	16ee\	16gg\
.	16ee\	16gg\
.	16ee\JJ	16gg\JJ
4r	16gg\LL	16bb\LL
.	16ee\	16gg\
.	16ee\	16gg\
.	16ee\JJ	16gg\JJ
=19	=19	=19
4A\	16cc#\LL	16ee\LL
.	16ee\	16gg\
.	16ee\	16gg\
.	16ee\JJ	16gg\JJ
4r	16cc#\LL	16ee\LL
.	16ee\	16gg\
.	16ee\	16gg\
.	16ee\JJ	16gg\JJ
=20	=20	=20
4d\	16ff#\LL	16aa\LL
.	16dd\	16ff#\
.	16dd\	16ff#\
.	16dd\JJ	16ff#\JJ
4r	16ff#\LL	16aa\LL
.	16dd\	16ff#\
.	16dd\	16ff#\
.	16dd\JJ	16ff#\JJ
=21	=21	=21
4D\	16a\LL	16dd\LL
.	16dd\	16ff#\
.	16dd\	16ff#\
.	16dd\JJ	16ff#\JJ
4D\	16ccn\LL	16dd\LL
.	16cc\	16ff#\
.	16cc\	16ff#\
.	16cc\JJ	16ff#\JJ
=22	=22	=22
4G\	16b\LL	16dd\LL
.	16b\	16gg\
.	16b\	16gg\
.	16b\JJ	16gg\JJ
4GG/	16b\LL	16dd\LL
.	16b\	16gg\
.	16b\	16gg\
.	16b\JJ	16gg\JJ
=23	=23	=23
!	!LO:SIC:v:s=16ccn\LL	!
4D\	16cc#\LL	16aa\LL
!	!LO:SIC:v:s=16cc\	!
.	16cc#\	16aa\
!	!LO:SIC:v:s=16cc\	!
.	16cc#\	16aa\
!	!LO:SIC:v:s=16cc\JJ	!
.	16cc#\JJ	16aa\JJ
4d\	16a/LL	16ff#\LL
.	16a/	16ff#\
.	16a/	16ff#\
.	16a/JJ	16ff#\JJ
!	!LO:LB:g=original	!
=24	=24	=24
4G\	16b\LL	16gg\LL
.	16b\	16gg\
.	16dd\	16bb\
.	16dd\JJ	16bb\JJ
4GG/	16b\LL	16gg\LL
.	16b\	16gg\
.	16dd\	16bb\
.	16dd\JJ	16bb\JJ
=25	=25	=25
!	!LO:SIC:v:s=16ccn\LL	!
4D\	16cc#\LL	16aa\LL
!	!LO:SIC:v:s=16cc\	!
.	16cc#\	16aa\
!	!LO:SIC:v:s=16cc\	!
.	16cc#\	16aa\
!	!LO:SIC:v:s=16cc\JJ	!
.	16cc#\JJ	16aa\JJ
4d\	16a/LL	16ff#\LL
.	16a/	16ff#\
.	16a/	16ff#\
.	16a/JJ	16ff#\JJ
=26	=26	=26
*M3/4	*M3/4	*M3/4
!LO:TX:a:i:B:t=Lente	!LO:TX:a:i:B:t=Lente	!LO:TX:a:i:B:t=Lente
4G\	8b\L	8gg/L 8b/ 8d/ 8G/
.	16b\L	16dd/L
.	16cc#\JJ	16ee/JJ
4G\	8b\L	8dd\L
.	8g\	8b\
4G\	8cc#\	8ee\
.	8b\J	8dd\J
=27	=27	=27
4G\	8b/L	8dd|\L
.	16g/L	16b\L
.	16b/JJ	16dd\JJ
4G\	8g/L	8b/L
.	8B/	8g/
!	!LO:SIC:v:s=8cn/	!
4d\	8c#/	8a/
.	8A/J	8f#/J
=28	=28	=28
4G\	4B/	4g/
!LO:TX:t=P:problem=mixed beam	!	!
8GG/L	8B/L	8g/L
8G\	8d/J	8b/J
8GG/	8g/L	8g\L
8G\J	8b/J	8dd\J
!LO:LB:g=original	!	!
=29	=29	=29
!LO:TX:t=P:problem=mixed beam	!	!
8GG/L	8g\L	(8g\L
8G\	8dd\	8b\)
8GG/	8g\	(8g\
8G\	8b\	8dd\)
8GG/	8g\	(8b\
8G\J	8b\J	8gg\J)
=30	=30	=30
!LO:TX:t=P:problem=mixed beam	!	!
8GG/L	8B/L	8g/L
8G\	16B/L	16d/L
!	!LO:SIC:v:s=16cn/JJ	!
.	16c#/JJ	16e/JJ
8GG/	8B/L	8d/L
!	!LO:SIC:v:s=8c/	!
8G\	8c#/	8e/
8GG/	8B/	8d/
!	!LO:SIC:v:s=8c/J	!
8G\J	8c#/J	8e/J
=31	=31	=31
4GG/	4B/	4d/
4r	4r	4r
!	!LO:TX:b:t=Verte	!LO:TX:b:t=Verte
4r	4r	4r
==	==	==
*-	*-	*-
!!!system-decoration: [(s1,s2,s3)]
!!!RDF**kern: | = vertical stroke
!!!ENC: Mateusz Solarz
!!!END: 2021-05-28
!!!EED: Andrzej Borzym
!!!EEV: 2022-01-10
